svg/teddy_bear.svg

<svg xmlns="http://www.w3.org/2000/svg" viewBox="0 0 24 24"><path d="M15.75 19.13c-.83 0-1.5-.84-1.5-1.88 0-1.03.67-1.87 1.5-1.87s1.5.84 1.5 1.87c0 1.04-.67 1.88-1.5 1.88M12 11.25c-1.24 0-2.25-.84-2.25-1.87 0-1.04 1.01-1.88 2.25-1.88s2.25.84 2.25 1.88c0 1.03-1.01 1.87-2.25 1.87m-3.75 7.88c-.83 0-1.5-.84-1.5-1.88 0-1.03.67-1.87 1.5-1.87s1.5.84 1.5 1.87c0 1.04-.67 1.88-1.5 1.88M12 8.25c.41 0 .75.34.75.75s-.34.75-.75.75-.75-.34-.75-.75.34-.75.75-.75M18.75 12c-.32 0-.63.07-.91.2-.48-.61-1.13-1.13-1.91-1.53.57-.8.91-1.77.91-2.82v-.06c1.09-.23 1.91-1.2 1.91-2.37 0-1.33-1.09-2.42-2.42-2.42-.69 0-1.33.29-1.75.75a4.81 4.81 0 0 0-5.16 0C9 3.29 8.36 3 7.67 3 6.34 3 5.25 4.09 5.25 5.42c0 1.16.82 2.13 1.9 2.37v.06c0 1.05.35 2.03.91 2.82-.77.4-1.42.92-1.9 1.53A2.24 2.24 0 0 0 3 14.25c0 1.25 1 2.25 2.25 2.25h.06c-.04.24-.06.5-.06.75 0 2.07 1.34 3.75 3 3.75 1.01 0 1.9-.63 2.45-1.59.42.06.85.09 1.3.09s.88-.03 1.3-.09c.55.96 1.44 1.59 2.45 1.59 1.66 0 3-1.68 3-3.75 0-.25-.02-.51-.06-.75h.06c1.25 0 2.25-1 2.25-2.25S20 12 18.75 12"/></svg>

<svg xmlns="http://www.w3.org/2000/svg" id="mdi-teddy-bear" viewBox="0 0 24 24"><path d="M15.75 19.13C14.92 19.13 14.25 18.29 14.25 17.25C14.25 16.22 14.92 15.38 15.75 15.38C16.58 15.38 17.25 16.22 17.25 17.25C17.25 18.29 16.58 19.13 15.75 19.13M12 11.25C10.76 11.25 9.75 10.41 9.75 9.38C9.75 8.34 10.76 7.5 12 7.5C13.24 7.5 14.25 8.34 14.25 9.38C14.25 10.41 13.24 11.25 12 11.25M8.25 19.13C7.42 19.13 6.75 18.29 6.75 17.25C6.75 16.22 7.42 15.38 8.25 15.38C9.08 15.38 9.75 16.22 9.75 17.25C9.75 18.29 9.08 19.13 8.25 19.13M12 8.25C12.41 8.25 12.75 8.59 12.75 9C12.75 9.41 12.41 9.75 12 9.75C11.59 9.75 11.25 9.41 11.25 9C11.25 8.59 11.59 8.25 12 8.25M18.75 12C18.43 12 18.12 12.07 17.84 12.2C17.36 11.59 16.71 11.07 15.93 10.67C16.5 9.87 16.84 8.9 16.84 7.85C16.84 7.83 16.84 7.81 16.84 7.79C17.93 7.56 18.75 6.59 18.75 5.42C18.75 4.09 17.66 3 16.33 3C15.64 3 15 3.29 14.58 3.75C13.83 3.28 12.95 3 12 3C11.05 3 10.16 3.28 9.42 3.75C9 3.29 8.36 3 7.67 3C6.34 3 5.25 4.09 5.25 5.42C5.25 6.58 6.07 7.55 7.15 7.79C7.15 7.81 7.15 7.83 7.15 7.85C7.15 8.9 7.5 9.88 8.06 10.67C7.29 11.07 6.64 11.59 6.16 12.2C5.88 12.07 5.57 12 5.25 12C4 12 3 13 3 14.25C3 15.5 4 16.5 5.25 16.5C5.27 16.5 5.29 16.5 5.31 16.5C5.27 16.74 5.25 17 5.25 17.25C5.25 19.32 6.59 21 8.25 21C9.26 21 10.15 20.37 10.7 19.41C11.12 19.47 11.55 19.5 12 19.5C12.45 19.5 12.88 19.47 13.3 19.41C13.85 20.37 14.74 21 15.75 21C17.41 21 18.75 19.32 18.75 17.25C18.75 17 18.73 16.74 18.69 16.5C18.71 16.5 18.73 16.5 18.75 16.5C20 16.5 21 15.5 21 14.25C21 13 20 12 18.75 12" /></svg>
